X:1876
T:Bourrée - La coccinelle (J. Blanchard)
M:3/8
L:1/16
K:G
Bc|d2g2f2|e4Bc|dedcAc|B2G2Bc|\
d2g2f2|e4Bc|dedcAB|G4:|
|:Bc|dBGecG|dBGecG|dedcAc|B2G2Bc|\
dBGecG|dBGecG|dedcAB|G4:|


